symbols/web/pin_drop/materialsymbolsrounded/pin_drop_wght500gradN25fill1_20px.svg

<svg xmlns="http://www.w3.org/2000/svg" height="20" width="20"><path d="M10 15.542q-.208 0-.406-.063-.198-.062-.365-.187-2.604-2.063-3.864-3.98-1.261-1.916-1.261-3.77 0-1.48.531-2.615.532-1.135 1.375-1.896.844-.76 1.896-1.156Q8.958 1.479 10 1.479q1.042 0 2.083.396 1.042.396 1.896 1.156.854.761 1.386 1.896.531 1.135.531 2.615 0 1.854-1.261 3.77-1.26 1.917-3.864 3.98-.167.125-.365.187-.198.063-.406.063Zm0-6.354q.729 0 1.25-.521t.521-1.25q0-.729-.521-1.25T10 5.646q-.729 0-1.25.521t-.521 1.271q0 .729.521 1.239.521.511 1.25.511Zm-4.958 9.333q-.375 0-.657-.292-.281-.291-.281-.646 0-.375.281-.666.282-.292.657-.292h9.916q.375 0 .657.292.281.291.281.666 0 .355-.281.646-.282.292-.657.292Z"/></svg>

<svg xmlns="http://www.w3.org/2000/svg" height="20" width="20"><path d="M10 15.542Q9.792 15.542 9.594 15.479Q9.396 15.417 9.229 15.292Q6.625 13.229 5.365 11.312Q4.104 9.396 4.104 7.542Q4.104 6.062 4.635 4.927Q5.167 3.792 6.01 3.031Q6.854 2.271 7.906 1.875Q8.958 1.479 10 1.479Q11.042 1.479 12.083 1.875Q13.125 2.271 13.979 3.031Q14.833 3.792 15.365 4.927Q15.896 6.062 15.896 7.542Q15.896 9.396 14.635 11.312Q13.375 13.229 10.771 15.292Q10.604 15.417 10.406 15.479Q10.208 15.542 10 15.542ZM10 9.188Q10.729 9.188 11.25 8.667Q11.771 8.146 11.771 7.417Q11.771 6.688 11.25 6.167Q10.729 5.646 10 5.646Q9.271 5.646 8.75 6.167Q8.229 6.688 8.229 7.438Q8.229 8.167 8.75 8.677Q9.271 9.188 10 9.188ZM5.042 18.521Q4.667 18.521 4.385 18.229Q4.104 17.938 4.104 17.583Q4.104 17.208 4.385 16.917Q4.667 16.625 5.042 16.625H14.958Q15.333 16.625 15.615 16.917Q15.896 17.208 15.896 17.583Q15.896 17.938 15.615 18.229Q15.333 18.521 14.958 18.521Z"/></svg>
